X:93
T:La Troumpuzo
M:2/4
L:1/8
N:Anim
N:La Bourre 4th edition 1929, page 90
Z:Steve Mansfield www.lesession.co.uk June 2012
K:Am
B e e d | e2 c2 | B c d e | c2 A2 | 
A e e d | e2 c2 | B c d e | c2 A2 |
A c B c | d c B2 | A c B c | d c B2 | 
A e e d | e2 c2 | B c d e | (cB) A2 |]
<end>
<start>
